X:17
T:The Limerick Lasses*
R:reel
M:C|
Z:Julie Ross
K:D
"The Limerick Lasses"
dBAF DEFD|GFGA B~E3|dBAF D2FD|GBAG FD~D2:|
|:dcde f3d|efed cA~A2|(3Bcd ef geag|fdec d2dA:|
|:BdAd BdAd|(3Bcd ef gfed|BdAd Bdag|faeg fdd2:|
